src/components/assets/images/person.svg

<svg width="14" height="14" viewBox="0 0 14 14" fill="none" xmlns="http://www.w3.org/2000/svg">
<path d="M8.95232 1.30071C8.95232 2.01284 8.02696 2.59061 6.88639 2.59061C5.74582 2.59061 4.82046 2.01284 4.82046 1.30071C4.82046 0.588573 5.74582 0.0108032 6.88639 0.0108032C8.02696 0.0108032 8.95232 0.588573 8.95232 1.30071ZM6.54207 9.47011V12.9099C6.54207 13.3855 5.92659 13.7698 5.16478 13.7698C4.40297 13.7698 3.78749 13.3855 3.78749 12.9099V6.91449L2.55654 8.19364C2.16488 8.59942 1.31698 8.7311 0.667075 8.48656C0.0171673 8.24201 -0.19373 7.71261 0.197936 7.30683L2.70718 4.70015C3.45608 3.92352 4.79894 3.44786 6.2494 3.44786H7.52769C8.97815 3.44786 10.321 3.92352 11.0699 4.70015L13.5791 7.30683C13.9708 7.71261 13.7599 8.24201 13.11 8.48656C12.4601 8.7311 11.6122 8.59942 11.2205 8.19364L9.98529 6.91449V12.9099C9.98529 13.3855 9.36981 13.7698 8.608 13.7698C7.84619 13.7698 7.23071 13.3855 7.23071 12.9099V9.47011H6.54207Z" fill="black"/>
</svg>

<svg width="14" height="14" fill="none" xmlns="http://www.w3.org/2000/svg"><path d="M8.952 1.3c0 .713-.925 1.29-2.066 1.29-1.14 0-2.066-.577-2.066-1.29C4.82.59 5.746.01 6.886.01 8.027.01 8.952.59 8.952 1.3Zm-2.41 8.17v3.44c0 .476-.615.86-1.377.86s-1.378-.384-1.378-.86V6.914l-1.23 1.28c-.392.405-1.24.537-1.89.293-.65-.245-.86-.774-.47-1.18L2.708 4.7c.75-.776 2.092-1.252 3.542-1.252h1.279c1.45 0 2.793.476 3.542 1.252l2.51 2.607c.39.406.18.935-.47 1.18-.65.244-1.498.112-1.89-.293l-1.235-1.28v5.996c0 .476-.615.86-1.377.86s-1.377-.384-1.377-.86V9.47h-.689Z" fill="#000"/></svg>
